flaticon/business/diagram-1.svg

<svg xmlns="http://www.w3.org/2000/svg" width="32" height="32" viewBox="0 0 24 24">
    <path d="M 21.199219 16.425781 L 21.199219 11.601562 L 12.398438 11.601562 L 12.398438 7.574219 C 13.976562 7.375 15.199219 6.027344 15.199219 4.398438 C 15.199219 2.636719 13.765625 1.199219 12 1.199219 C 10.234375 1.199219 8.800781 2.636719 8.800781 4.398438 C 8.800781 6.027344 10.023438 7.375 11.601562 7.574219 L 11.601562 11.601562 L 2.800781 11.601562 L 2.800781 16.425781 C 1.222656 16.625 0 17.972656 0 19.601562 C 0 21.363281 1.4375 22.800781 3.199219 22.800781 C 4.964844 22.800781 6.398438 21.363281 6.398438 19.601562 C 6.398438 17.972656 5.175781 16.625 3.601562 16.425781 L 3.601562 12.398438 L 11.601562 12.398438 L 11.601562 16.425781 C 10.023438 16.625 8.800781 17.972656 8.800781 19.601562 C 8.800781 21.363281 10.234375 22.800781 12 22.800781 C 13.765625 22.800781 15.199219 21.363281 15.199219 19.601562 C 15.199219 17.972656 13.976562 16.625 12.398438 16.425781 L 12.398438 12.398438 L 20.398438 12.398438 L 20.398438 16.425781 C 18.824219 16.625 17.601562 17.972656 17.601562 19.601562 C 17.601562 21.363281 19.035156 22.800781 20.800781 22.800781 C 22.5625 22.800781 24 21.363281 24 19.601562 C 24 17.972656 22.777344 16.625 21.199219 16.425781 Z M 9.601562 4.398438 C 9.601562 3.078125 10.675781 2 12 2 C 13.324219 2 14.398438 3.078125 14.398438 4.398438 C 14.398438 5.722656 13.324219 6.800781 12 6.800781 C 10.675781 6.800781 9.601562 5.722656 9.601562 4.398438 Z M 5.601562 19.601562 C 5.601562 20.921875 4.523438 22 3.199219 22 C 1.875 22 0.800781 20.921875 0.800781 19.601562 C 0.800781 18.277344 1.875 17.199219 3.199219 17.199219 C 4.523438 17.199219 5.601562 18.277344 5.601562 19.601562 Z M 14.398438 19.601562 C 14.398438 20.921875 13.324219 22 12 22 C 10.675781 22 9.601562 20.921875 9.601562 19.601562 C 9.601562 18.277344 10.675781 17.199219 12 17.199219 C 13.324219 17.199219 14.398438 18.277344 14.398438 19.601562 Z M 20.800781 22 C 19.476562 22 18.398438 20.921875 18.398438 19.601562 C 18.398438 18.277344 19.476562 17.199219 20.800781 17.199219 C 22.125 17.199219 23.199219 18.277344 23.199219 19.601562 C 23.199219 20.921875 22.125 22 20.800781 22 Z M 20.800781 22"/>
</svg>

<svg xmlns="http://www.w3.org/2000/svg" width="32" height="32" viewBox="0 0 24 24">
    <path d="M21.2 16.426v-4.824h-8.802V7.574A3.206 3.206 0 0 0 15.2 4.398C15.2 2.637 13.766 1.2 12 1.2a3.203 3.203 0 0 0-3.2 3.2 3.206 3.206 0 0 0 2.802 3.175v4.028H2.8v4.824A3.206 3.206 0 0 0 0 19.602C0 21.363 1.438 22.8 3.2 22.8c1.765 0 3.198-1.438 3.198-3.2a3.206 3.206 0 0 0-2.796-3.175v-4.028h8v4.028A3.206 3.206 0 0 0 8.8 19.602C8.8 21.363 10.234 22.8 12 22.8c1.766 0 3.2-1.438 3.2-3.2a3.206 3.206 0 0 0-2.802-3.175v-4.028h8v4.028a3.206 3.206 0 0 0-2.796 3.176c0 1.761 1.433 3.199 3.199 3.199 1.762 0 3.199-1.438 3.199-3.2a3.206 3.206 0 0 0-2.8-3.175zM9.601 4.398A2.401 2.401 0 0 1 12 2a2.401 2.401 0 0 1 0 4.8 2.402 2.402 0 0 1-2.398-2.402zm-4 15.204A2.405 2.405 0 0 1 3.199 22a2.401 2.401 0 0 1 0-4.8 2.406 2.406 0 0 1 2.403 2.402zm8.796 0A2.401 2.401 0 0 1 12 22a2.401 2.401 0 0 1 0-4.8 2.402 2.402 0 0 1 2.398 2.402zM20.801 22a2.405 2.405 0 0 1-2.403-2.398 2.406 2.406 0 0 1 2.403-2.403 2.401 2.401 0 0 1 0 4.8zm0 0"/>
</svg>
